; HEADER_BLOCK_START
; generated by OrcaSlicer 2.4.2 on 2026-07-07 at 19:08:43
; total layer number: 35
; filament_density: 1.24
; filament_diameter: 1.75
; max_z_height: 7.05
; filament: 1
; HEADER_BLOCK_END

; THUMBNAIL_BLOCK_START

;
; THUMBNAIL_BLOCK_END

; THUMBNAIL_BLOCK_START

;
; THUMBNAIL_BLOCK_END

; external perimeters extrusion width = 0.45mm
; perimeters extrusion width = 0.45mm
; infill extrusion width = 0.45mm
; solid infill extrusion width = 0.45mm
; top infill extrusion width = 0.40mm
; support material extrusion width = 0.40mm

; EXECUTABLE_BLOCK_START
M73 P0 R221
M201 X10000 Y10000 Z500 E5000
M203 X500 Y500 Z10 E60
M204 P10000 R1000 T10000
M205 X8.00 Y8.00 Z0.40 E5.00 ; sets the jerk limits, mm/sec
;TYPE:Custom
G90
G28
M104 S205
M140 S63
M190 S63
;G29
;M500
;M420 S1
G92 E0
G1 Z2 F200
G1 X3.0 Y3.0 F6000
M109 S205
G1 X20.0 Y10.0 Z0.3 F3000.0
G1 X100.0 Y10.0 Z0.3 F1500.0 E18
G1 X100.0 Y12.0 Z0.3 F3000.0
G1 X20.0 Y12.0 Z0.3 F1500.0 E22
G92 E0
G1 Z2.0 F3000
G90
G21
M83 ; use relative distances for extrusion
; Filament gcode
M106 S0
;LAYER_CHANGE
;Z:0.25
;HEIGHT:0.25
;BEFORE_LAYER_CHANGE
;0.25
G92 E0

G1 E-5 F2700
;AFTER_LAYER_CHANGE
;0.25
;_SET_FAN_SPEED_CHANGING_LAYER
M204 S500
; printing object base_bottom.stl id:5 copy 0
M204 S2500
G1 Z.45 F9000
G1 X110.016 Y209.374
G1 Z.45
G1 Z.25
G1 E5 F2400
M204 S500
;TYPE:Inner wall
;WIDTH:0.449999
G1 F1800
G1 X102.203 Y209.072 E.30598
G1 X94.454 Y208.155 E.30538
G1 X86.801 Y206.632 E.30538
G1 X79.29 Y204.514 E.30538
G1 X71.97 Y201.814 E.30538
G1 X64.883 Y198.547 E.30538
G1 X58.075 Y194.734 E.30539
G1 X51.587 Y190.399 E.30538
G1 X45.459 Y185.568 E.30538
G1 X39.729 Y180.271 E.30538
G1 X34.432 Y174.541 E.30538
G1 X29.601 Y168.413 E.30538
G1 X25.266 Y161.925 E.30538
G1 X21.453 Y155.117 E.30539
G1 X18.186 Y148.03 E.30538
G1 X15.486 Y140.71 E.30538
G1 X13.368 Y133.199 E.30538
G1 X11.845 Y125.546 E.30538
G1 X10.928 Y117.797 E.30538
G1 X10.624 Y110.06 E.30303
G1 X10.928 Y102.203 E.30773
G1 X11.845 Y94.454 E.30538
G1 X13.368 Y86.801 E.30538
G1 X15.486 Y79.29 E.30538
G1 X18.186 Y71.97 E.30538
G1 X21.453 Y64.883 E.30538
G1 X25.266 Y58.075 E.30539
G1 X29.601 Y51.587 E.30538
G1 X34.432 Y45.459 E.30538
G1 X39.729 Y39.729 E.30538
G1 X45.459 Y34.432 E.30538
G1 X51.587 Y29.601 E.30538
G1 X58.075 Y25.266 E.30538
G1 X64.883 Y21.453 E.30539
G1 X71.97 Y18.186 E.30538
G1 X79.29 Y15.486 E.30538
G1 X86.801 Y13.368 E.30538
G1 X94.454 Y11.845 E.30538
G1 X102.203 Y10.928 E.30538
G1 X109.94 Y10.624 E.30303
G1 X117.797 Y10.928 E.30773
G1 X125.546 Y11.845 E.30538
G1 X133.199 Y13.368 E.30538
G1 X140.71 Y15.486 E.30538
G1 X148.03 Y18.186 E.30538
G1 X155.117 Y21.453 E.30538
G1 X161.925 Y25.266 E.30539
G1 X168.413 Y29.601 E.30538
G1 X174.541 Y34.432 E.30538
G1 X180.271 Y39.729 E.30538
G1 X185.568 Y45.459 E.30538
G1 X190.399 Y51.587 E.30538
G1 X194.734 Y58.075 E.30538
G1 X198.547 Y64.883 E.30539
G1 X201.814 Y71.97 E.30538
G1 X204.514 Y79.29 E.30538
G1 X206.632 Y86.801 E.30538
G1 X208.155 Y94.454 E.30538
G1 X209.072 Y102.203 E.30538
G1 X209.376 Y110.06 E.30773
G1 X209.072 Y117.797 E.30303
G1 X208.155 Y125.546 E.30538
G1 X206.632 Y133.199 E.30538
G1 X204.514 Y140.71 E.30538
G1 X201.814 Y148.03 E.30538
G1 X198.547 Y155.117 E.30538
G1 X194.734 Y161.925 E.30539
G1 X190.399 Y168.413 E.30538
G1 X185.568 Y174.541 E.30538
G1 X180.271 Y180.271 E.30538
G1 X174.541 Y185.568 E.30538
G1 X168.413 Y190.399 E.30538
G1 X161.925 Y194.734 E.30538
G1 X155.117 Y198.547 E.30539
G1 X148.03 Y201.814 E.30538
G1 X140.71 Y204.514 E.30538
G1 X133.199 Y206.632 E.30538
G1 X125.546 Y208.155 E.30538
G1 X117.797 Y209.072 E.30538
G1 X110.06 Y209.376 E.30303
G1 X110.055 Y209.376 E.00018
M204 S2500
G1 X110.057 Y209.403 F9000
G1 X110 Y209.405
G1 X110 Y209.405
G1 X110 Y209.775
M204 S500
;TYPE:Outer wall
G1 F1800
G1 X102.172 Y209.467 E.3066
G1 X94.392 Y208.546 E.3066
G1 X86.708 Y207.018 E.3066
G1 X79.168 Y204.892 E.3066
G1 X71.818 Y202.18 E.3066
G1 X64.703 Y198.9 E.3066
G1 X57.868 Y195.072 E.3066
G1 X51.354 Y190.72 E.3066
G1 X45.201 Y185.869 E.3066
G1 X39.449 Y180.551 E.3066
G1 X34.131 Y174.799 E.3066
G1 X29.28 Y168.646 E.3066
G1 X24.928 Y162.132 E.3066
G1 X21.1 Y155.297 E.3066
G1 X17.82 Y148.182 E.3066
G1 X15.108 Y140.832 E.3066
G1 X12.982 Y133.292 E.3066
G1 X11.454 Y125.608 E.3066
G1 X10.533 Y117.828 E.3066
G1 X10.225 Y110 E.3066
G1 X10.533 Y102.172 E.3066
G1 X11.454 Y94.392 E.3066
G1 X12.982 Y86.708 E.3066
G1 X15.108 Y79.168 E.3066
G1 X17.82 Y71.818 E.3066
G1 X21.1 Y64.703 E.3066
G1 X24.928 Y57.868 E.3066
G1 X29.28 Y51.354 E.3066
G1 X34.131 Y45.201 E.3066
G1 X39.449 Y39.449 E.3066
G1 X45.201 Y34.131 E.3066
G1 X51.354 Y29.28 E.3066
G1 X57.868 Y24.928 E.3066
G1 X64.703 Y21.1 E.3066
G1 X71.818 Y17.82 E.3066
G1 X79.168 Y15.108 E.3066
G1 X86.708 Y12.982 E.3066
G1 X94.392 Y11.454 E.3066
G1 X102.172 Y10.533 E.3066
G1 X110 Y10.225 E.3066
G1 X117.828 Y10.533 E.3066
G1 X125.608 Y11.454 E.3066
G1 X133.292 Y12.982 E.3066
G1 X140.832 Y15.108 E.3066
G1 X148.182 Y17.82 E.3066
G1 X155.297 Y21.1 E.3066
G1 X162.132 Y24.928 E.3066
G1 X168.646 Y29.28 E.3066
G1 X174.799 Y34.131 E.3066
G1 X180.551 Y39.449 E.3066
G1 X185.869 Y45.201 E.3066
G1 X190.72 Y51.354 E.3066
G1 X195.072 Y57.868 E.3066
G1 X198.9 Y64.703 E.3066
G1 X202.18 Y71.818 E.3066
G1 X204.892 Y79.168 E.3066
G1 X207.018 Y86.708 E.3066
G1 X208.546 Y94.392 E.3066
G1 X209.467 Y102.172 E.3066
G1 X209.772 Y110.076 E.30956
G1 X209.467 Y117.828 E.30364
G1 X208.546 Y125.608 E.3066
G1 X207.018 Y133.292 E.3066
G1 X204.892 Y140.832 E.3066
G1 X202.18 Y148.182 E.3066
G1 X198.9 Y155.297 E.3066
G1 X195.072 Y162.132 E.3066
G1 X190.72 Y168.646 E.3066
G1 X185.869 Y174.799 E.3066
G1 X180.551 Y180.551 E.3066
G1 X174.799 Y185.869 E.3066
G1 X168.646 Y190.72 E.3066
G1 X162.132 Y195.072 E.3066
G1 X155.297 Y198.9 E.3066
G1 X148.182 Y202.18 E.3066
G1 X140.832 Y204.892 E.3066
G1 X133.292 Y207.018 E.3066
G1 X125.608 Y208.546 E.3066
G1 X117.828 Y209.467 E.3066
M73 P0 R220
G1 X110.04 Y209.773 E.30504
M204 S2500
G1 E-5 F2700
G1 Z.45 F9000
G1 X110.025 Y209.404 Z.45
G1 X202.255 Y108.51
G1 X202.377 Y108.377
G1 X202.509 Y108.255
G1 X202.651 Y108.143
G1 X202.801 Y108.043
G1 X202.958 Y107.955
G1 X203.122 Y107.88
G1 X203.291 Y107.817
G1 X203.464 Y107.768
G1 X203.641 Y107.733
G1 X203.82 Y107.712
G1 X203.995 Y107.705
G1 X204.179 Y107.712
G1 X204.182 Y107.712
G1 X204.184 Y107.701
G1 Z.25
G1 E5 F2400
M204 S500
;TYPE:Inner wall
G1 F1800
G1 X204.089 Y107.686 E.00376
G1 X203.391 Y107.763 E.02748
G1 X202.885 Y107.967 E.02135
G1 X202.426 Y108.301 E.02222
G1 X201.988 Y108.849 E.02746
G1 X201.774 Y109.351 E.02135
G1 X201.684 Y109.889 E.02133
G1 X201.729 Y110.454 E.02221
G1 X201.967 Y111.114 E.02743
G1 X202.284 Y111.559 E.0214
G1 X202.72 Y111.93 E.02238
G1 X203.35 Y112.225 E.02724
G1 X203.911 Y112.314 E.02224
G1 X204.609 Y112.237 E.02749
G1 X205.118 Y112.031 E.0215
G1 X205.574 Y111.699 E.02206
G1 X206.012 Y111.151 E.02746
G1 X206.226 Y110.649 E.02135
G1 X206.314 Y110.061 E.02328
G1 X206.271 Y109.546 E.02023
G1 X206.033 Y108.886 E.02743
G1 X205.716 Y108.441 E.0214
G1 X205.28 Y108.07 E.02238
G1 X204.65 Y107.775 E.02724
G1 X204.223 Y107.707 E.01692
M204 S2500
G1 X204.222 Y107.717 F9000
G1 X204.179 Y107.712
G1 X204.164 Y107.711
G1 X204.15 Y108.084
M204 S500
;TYPE:Outer wall
G1 F1800
G1 X204.131 Y108.08 E.00077
G1 X203.581 Y108.123 E.02157
G1 X203.147 Y108.276 E.01802
G1 X202.76 Y108.528 E.01808
G1 X202.377 Y108.969 E.02286
G1 X202.177 Y109.384 E.01802
G1 X202.08 Y109.872 E.01946
G1 X202.097 Y110.288 E.01631
G1 X202.273 Y110.845 E.02285
G1 X202.522 Y111.232 E.01801
G1 X202.862 Y111.552 E.01826
G1 X203.376 Y111.819 E.02269
G1 X203.846 Y111.919 E.01881
G1 X204.418 Y111.877 E.02244
G1 X204.857 Y111.722 E.01819
G1 X205.273 Y111.441 E.01965
G1 X205.623 Y111.031 E.02112
G1 X205.823 Y110.616 E.01802
G1 X205.916 Y110.174 E.0177
G1 X205.894 Y109.668 E.0198
G1 X205.727 Y109.155 E.0211
G1 X205.478 Y108.768 E.01801
G1 X205.101 Y108.424 E.02
G1 X204.624 Y108.181 E.02094
G1 X204.189 Y108.092 E.01736
M204 S2500
G1 E-5 F2700
G1 Z.45 F9000
G1 X204.234 Y107.718 Z.45
G1 X204.179 Y107.712
G1 X203.995 Y107.705
G1 X203.82 Y107.712
G1 X203.641 Y107.733
G1 X203.464 Y107.768
G1 X203.291 Y107.817
G1 X203.122 Y107.88
G1 X202.958 Y107.955
G1 X202.801 Y108.043
G1 X202.651 Y108.143
G1 X202.509 Y108.255
G1 X202.377 Y108.377
G1 X202.255 Y108.51
G1 X202.143 Y108.651
G1 X202.043 Y108.801
G1 X201.955 Y108.958
G1 X201.88 Y109.122
G1 X201.817 Y109.291
G1 X201.768 Y109.464
G1 X201.733 Y109.641
G1 X201.712 Y109.82
G1 X201.705 Y110
G1 X201.712 Y110.18
G1 X201.733 Y110.359
G1 X201.768 Y110.536
G1 X201.79 Y110.613
G1 X112.158 Y204.776
G1 X112.165 Y204.779
G1 Z.25
G1 E5 F2400
M204 S500
;TYPE:Inner wall
G1 F1800
G1 X112.225 Y204.651 E.00554
G1 X112.314 Y204.094 E.02207
G1 X112.237 Y203.391 E.02768
G1 X112.033 Y202.885 E.02135
G1 X111.716 Y202.441 E.02135
G1 X111.151 Y201.988 E.02835
G1 X110.649 Y201.774 E.02135
G1 X110.111 Y201.684 E.02133
G1 X109.546 Y201.729 E.02221
G1 X108.886 Y201.967 E.02742
G1 X108.442 Y202.283 E.02136
G1 X108.073 Y202.716 E.02223
G1 X107.775 Y203.35 E.02743
G1 X107.686 Y203.911 E.02222
G1 X107.77 Y204.625 E.02817
G1 X108.076 Y205.289 E.02859
G1 X108.568 Y205.82 E.02834
G1 X109.2 Y206.173 E.02834
G1 X109.726 Y206.3 E.02119
G1 X109.939 Y206.314 E.00836
G1 X110.454 Y206.271 E.02023
G1 X111.114 Y206.033 E.02743
G1 X111.558 Y205.717 E.02136
G1 X111.927 Y205.284 E.02224
G1 X112.148 Y204.815 E.02031
M204 S2500
G1 X112.144 Y204.814 F9000
G1 X112.157 Y204.778
G1 X111.806 Y204.649
M204 S500
;TYPE:Outer wall
G1 F1800
G1 X111.819 Y204.624 E.00107
G1 X111.919 Y204.135 E.01955
G1 X111.877 Y203.582 E.02171
G1 X111.724 Y203.147 E.01803
G1 X111.466 Y202.752 E.01849
G1 X111.013 Y202.363 E.02335
G1 X110.616 Y202.177 E.01715
G1 X110.174 Y202.084 E.0177
G1 X109.712 Y202.097 E.01807
G1 X109.155 Y202.273 E.02285
G1 X108.768 Y202.522 E.01801
G1 X108.451 Y202.858 E.01809
G1 X108.181 Y203.376 E.02285
G1 X108.081 Y203.88 E.02011
G1 X108.137 Y204.474 E.02336
G1 X108.377 Y205.031 E.02375
G1 X108.775 Y205.482 E.02353
G1 X109.292 Y205.788 E.02352
G1 X109.819 Y205.914 E.02119
G1 X110.313 Y205.899 E.01933
G1 X110.845 Y205.727 E.02189
G1 X111.232 Y205.478 E.01801
G1 X111.574 Y205.105 E.01983
G1 X111.788 Y204.684 E.01846
M204 S2500
G1 E-5 F2700
G1 Z.45 F9000
G1 X112.144 Y204.815 Z.45
G1 X112.183 Y204.709
G1 X112.232 Y204.536
G1 X112.267 Y204.359
G1 X112.287 Y204.185
G1 X112.295 Y204.001
G1 X112.288 Y203.82
G1 X112.267 Y203.641
G1 X112.232 Y203.464
G1 X112.183 Y203.291
G1 X112.12 Y203.122
G1 X112.045 Y202.958
G1 X111.957 Y202.801
G1 X111.86 Y202.655
G1 X111.746 Y202.51
G1 X111.623 Y202.377
G1 X17.623 Y108.377
G1 X17.49 Y108.254
G1 X17.373 Y108.163
G1 X17.38 Y108.155
G1 Z.25
G1 E5 F2400
M204 S500
;TYPE:Inner wall
G1 F1800
G1 X17.28 Y108.07 E.0051
G1 X16.65 Y107.775 E.02724
G1 X16.089 Y107.686 E.02225
G1 X15.391 Y107.763 E.02748
G1 X14.885 Y107.967 E.02135
G1 X14.426 Y108.301 E.02222
G1 X13.988 Y108.849 E.02746
G1 X13.774 Y109.351 E.02135
G1 X13.686 Y109.939 E.02328
G1 X13.729 Y110.454 E.02023
G1 X13.967 Y111.114 E.02743
G1 X14.284 Y111.559 E.0214
G1 X14.72 Y111.93 E.02238
G1 X15.35 Y112.225 E.02724
G1 X15.911 Y112.314 E.02224
G1 X16.609 Y112.237 E.02749
G1 X17.118 Y112.031 E.0215
G1 X17.574 Y111.699 E.02206
G1 X18.012 Y111.151 E.02746
G1 X18.224 Y110.656 E.02107
G1 X18.315 Y110.163 E.01961
G1 X18.271 Y109.546 E.02424
G1 X18.033 Y108.886 E.02743
G1 X17.716 Y108.441 E.0214
G1 X17.41 Y108.181 E.01571
M204 S2500
G1 X17.405 Y108.188 F9000
G1 X17.357 Y108.15
G1 X17.128 Y108.443
M204 S500
;TYPE:Outer wall
G1 F1800
G1 X16.624 Y108.181 E.02221
G1 X16.154 Y108.081 E.01881
G1 X15.581 Y108.123 E.02247
G1 X15.147 Y108.276 E.01802
G1 X14.727 Y108.559 E.0198
G1 X14.377 Y108.969 E.02112
G1 X14.177 Y109.384 E.01802
G1 X14.084 Y109.826 E.0177
G1 X14.101 Y110.313 E.01904
G1 X14.273 Y110.845 E.02189
G1 X14.522 Y111.232 E.01801
G1 X14.899 Y111.576 E.02
G1 X15.376 Y111.819 E.02094
G1 X15.869 Y111.92 E.0197
G1 X16.418 Y111.877 E.02155
G1 X16.857 Y111.722 E.01819
G1 X17.24 Y111.472 E.01792
G1 X17.623 Y111.031 E.02286
G1 X17.823 Y110.616 E.01802
G1 X17.916 Y110.174 E.0177
G1 X17.902 Y109.702 E.01848
G1 X17.727 Y109.155 E.02245
G1 X17.478 Y108.768 E.01801
G1 X17.159 Y108.467 E.01717
M204 S2500
G1 E-5 F2700
G1 Z.45 F9000
G1 X17.388 Y108.175 Z.45
G1 X107.763 Y16.51
G1 X107.757 Y16.511
G1 Z.25
G1 E5 F2400
M204 S500
;TYPE:Inner wall
G1 F1800
G1 X107.77 Y16.625 E.00449
G1 X108.076 Y17.289 E.02859
G1 X108.511 Y17.78 E.02568
G1 X109.028 Y18.102 E.02385
G1 X109.246 Y18.184 E.00911
G1 X109.889 Y18.316 E.02568
G1 X110.454 Y18.271 E.02221
G1 X111.114 Y18.033 E.02743
G1 X111.558 Y17.717 E.02136
G1 X111.927 Y17.284 E.02223
G1 X112.225 Y16.651 E.02741
G1 X112.314 Y16.094 E.02207
G1 X112.237 Y15.391 E.02768
G1 X112.033 Y14.885 E.02135
G1 X111.699 Y14.426 E.02222
G1 X111.151 Y13.988 E.02746
G1 X110.649 Y13.774 E.02135
G1 X110.061 Y13.686 E.02328
G1 X109.546 Y13.729 E.02023
G1 X108.886 Y13.967 E.02742
G1 X108.442 Y14.283 E.02136
G1 X108.073 Y14.716 E.02223
G1 X107.775 Y15.35 E.02743
G1 X107.686 Y15.911 E.02222
G1 X107.752 Y16.472 E.02211
M204 S2500
G1 X107.755 Y16.471 F9000
G1 X107.751 Y16.449
G1 X108.124 Y16.375
M204 S500
;TYPE:Outer wall
G1 F1800
G1 X108.131 Y16.457 E.00321
G1 X108.364 Y17.015 E.02367
G1 X108.756 Y17.469 E.02347
G1 X109.266 Y17.78 E.02339
G1 X109.854 Y17.92 E.02365
G1 X110.288 Y17.903 E.01699
G1 X110.845 Y17.727 E.02285
G1 X111.232 Y17.478 E.01801
G1 X111.549 Y17.142 E.01809
G1 X111.819 Y16.624 E.02285
G1 X111.918 Y16.158 E.01865
G1 X111.877 Y15.582 E.02262
G1 X111.724 Y15.147 E.01803
G1 X111.441 Y14.727 E.0198
G1 X111.031 Y14.377 E.02113
G1 X110.616 Y14.177 E.01802
G1 X110.174 Y14.084 E.0177
G1 X109.687 Y14.101 E.01904
G1 X109.155 Y14.273 E.02189
G1 X108.768 Y14.522 E.01801
G1 X108.426 Y14.895 E.01983
G1 X108.181 Y15.376 E.0211
G1 X108.08 Y15.869 E.0197
G1 X108.12 Y16.335 E.01831
M204 S2500
G1 E-5 F2700
G1 Z.45 F9000
G1 X107.743 Y16.41 Z.45
G1 X107.733 Y16.359
G1 X107.712 Y16.18
G1 X107.705 Y16
G1 X107.712 Y15.82
G1 X107.733 Y15.641
G1 X107.768 Y15.464
G1 X107.817 Y15.291
G1 X107.88 Y15.122
G1 X107.955 Y14.958
G1 X108.043 Y14.801
G1 X108.143 Y14.651
G1 X108.255 Y14.509
G1 X108.377 Y14.377
G1 X108.51 Y14.255
G1 X108.651 Y14.143
G1 X108.801 Y14.043
G1 X108.958 Y13.955
G1 X109.122 Y13.88
G1 X109.291 Y13.817
G1 X109.464 Y13.768
G1 X109.641 Y13.733
G1 X109.82 Y13.712
G1 X109.995 Y13.705
G1 X110.179 Y13.712
G1 X110.359 Y13.733
G1 X110.536 Y13.768
G1 X110.709 Y13.817
G1 X110.878 Y13.88
G1 X110.996 Y13.934
G1 X114.608 Y10.776
G1 X114.602 Y10.922
G1 Z.25
G1 E5 F2400
M204 S500
;TYPE:Bottom surface
;WIDTH:0.450761
G1 F3600
G1 X110.045 Y10.922 E.17868
G1 X102.226 Y11.225 E.30682
G1 X101.432 Y11.319 E.03135
G1 X118.568 Y11.319 E.67191
G1 X121.923 Y11.716 E.13248
G1 X98.077 Y11.716 E.93503
G1 X94.722 Y12.113 E.13248
G1 X125.278 Y12.113 E1.19815
G1 X125.5 Y12.139 E.00874
G1 X127.364 Y12.51 E.07455
G1 X92.636 Y12.51 E1.36175
G1 X90.639 Y12.907 E.07982
G1 X129.361 Y12.907 E1.51831
G1 X131.357 Y13.304 E.07982
G1 X88.643 Y13.304 E1.67488
G1 X86.87 Y13.657 E.07087
G1 X86.712 Y13.701 E.00643
G1 X108.756 Y13.701 E.86437
G1 X108.935 Y13.615 E.00777
G1 X109.543 Y13.422 E.02505
G1 X110.104 Y13.387 E.02204
G1 X110.303 Y13.403 E.00781
G1 X110.713 Y13.484 E.01638
G1 X110.901 Y13.545 E.00776
G1 X111.24 Y13.701 E.01465
G1 X133.288 Y13.701 E.8645
G1 X134.696 Y14.099 E.05737
G1 X111.773 Y14.099 E.89882
G1 X111.897 Y14.204 E.00639
G1 X112.05 Y14.377 E.00905
G1 X112.13 Y14.496 E.00561
G1 X136.104 Y14.496 E.94005
G1 X137.512 Y14.893 E.05737
G1 X112.369 Y14.893 E.9859
G1 X112.516 Y15.29 E.01661
G1 X138.92 Y15.29 E1.03531
G1 X140.328 Y15.687 E.05737
G1 X112.578 Y15.687 E1.08812
G1 X112.602 Y16.084 E.0156
G1 X141.473 Y16.084 E1.13206
G1 X142.549 Y16.481 E.04499
G1 X112.558 Y16.481 E1.17599
G1 X112.494 Y16.8 E.01274
G1 X112.456 Y16.878 E.00343
G1 X143.626 Y16.878 E1.22219
G1 X144.702 Y17.275 E.04499
G1 X112.262 Y17.275 E1.272
G1 X112.19 Y17.424 E.00647
G1 X112.082 Y17.586 E.00763
G1 X112.001 Y17.673 E.00466
G1 X145.778 Y17.673 E1.32445
G1 X146.855 Y18.07 E.04499
G1 X111.271 Y18.07 E1.3953
M204 S2500
G1 E-5 F2700
G1 Z.45 F9000
