; HEADER_BLOCK_START
; generated by OrcaSlicer 2.4.2 on 2026-07-07 at 23:03:43
; total layer number: 35
; filament_density: 1.24
; filament_diameter: 1.75
; max_z_height: 7.05
; filament: 1
; HEADER_BLOCK_END

; THUMBNAIL_BLOCK_START

;
; THUMBNAIL_BLOCK_END

; THUMBNAIL_BLOCK_START

;
; THUMBNAIL_BLOCK_END

; external perimeters extrusion width = 0.45mm
; perimeters extrusion width = 0.45mm
; infill extrusion width = 0.45mm
; solid infill extrusion width = 0.45mm
; top infill extrusion width = 0.40mm
; support material extrusion width = 0.40mm

; EXECUTABLE_BLOCK_START
M73 P0 R190
M201 X10000 Y10000 Z500 E5000
M203 X500 Y500 Z10 E60
M204 P10000 R1000 T10000
M205 X8.00 Y8.00 Z0.40 E5.00 ; sets the jerk limits, mm/sec
;TYPE:Custom
G90
G28
M104 S205
M140 S63
M190 S63
;G29
;M500
;M420 S1
G92 E0
G1 Z2 F200
G1 X3.0 Y3.0 F6000
M109 S205
G1 X20.0 Y10.0 Z0.3 F3000.0
G1 X100.0 Y10.0 Z0.3 F1500.0 E18
G1 X100.0 Y12.0 Z0.3 F3000.0
G1 X20.0 Y12.0 Z0.3 F1500.0 E22
G92 E0
G1 Z2.0 F3000
G90
G21
M83 ; use relative distances for extrusion
; Filament gcode
M106 S0
;LAYER_CHANGE
;Z:0.25
;HEIGHT:0.25
;BEFORE_LAYER_CHANGE
;0.25
G92 E0

G1 E-5 F2700
;AFTER_LAYER_CHANGE
;0.25
;_SET_FAN_SPEED_CHANGING_LAYER
M204 S500
; printing object top_lid (1).stl id:0 copy 0
M204 S2500
G1 Z.45 F9000
G1 X148.98 Y194.802
G1 Z.45
M73 P0 R189
G1 Z.25
G1 E5 F2400
M204 S500
;TYPE:Support interface
;WIDTH:0.4
G1 F3600
G1 X149.075 Y194.758 E.0036
G1 X149.199 Y194.783 E.00433
G1 X149.387 Y194.908 E.00771
G1 X149.512 Y195.096 E.00771
G1 X149.556 Y195.317 E.00771
G1 X149.512 Y195.538 E.00771
G1 X149.499 Y195.558 E.00083
G1 X148.818 Y194.877 E.03295
G1 X148.411 Y195.064 E.0153
G1 X148.546 Y195.679 E.0215
G1 X149.384 Y195.679 E.02868
M204 S2500
G1 E-5 F2700
G1 Z.45 F9000
G1 X149.974 Y194.821 Z.45
G1 Z.25
G1 E5 F2400
M204 S500
G1 F3600
G1 X149.952 Y194.8 E.00105
G1 X150.782 Y194.417 E.03124
G1 X151.186 Y194.821 E.01955
G1 X152.398 Y194.821 E.04145
G1 X151.612 Y194.035 E.03804
G1 X152.441 Y193.652 E.03124
G1 X153.61 Y194.821 E.05654
G1 X154.822 Y194.821 E.04145
G1 X153.228 Y193.227 E.07713
G1 X154.005 Y192.792 E.03045
G1 X156.035 Y194.821 E.09818
G1 X157.247 Y194.821 E.04145
G1 X154.782 Y192.356 E.11922
G1 X155.558 Y191.921 E.03045
G1 X158.459 Y194.821 E.14027
G1 X159.671 Y194.821 E.04145
G1 X156.335 Y191.486 E.16131
G1 X156.885 Y191.179 E.02153
G1 X157.24 Y191.179 E.01215
G1 X160.883 Y194.821 E.17619
G1 X162.095 Y194.821 E.04145
G1 X158.452 Y191.179 E.17619
G1 X159.664 Y191.179 E.04145
G1 X163.307 Y194.821 E.17619
G1 X164.519 Y194.821 E.04145
G1 X160.876 Y191.179 E.17619
G1 X162.088 Y191.179 E.04145
G1 X165.731 Y194.821 E.17619
G1 X166.943 Y194.821 E.04145
G1 X163.3 Y191.179 E.17619
G1 X164.512 Y191.179 E.04145
G1 X168.155 Y194.821 E.17619
G1 X169.368 Y194.821 E.04145
G1 X165.725 Y191.179 E.17619
G1 X166.937 Y191.179 E.04145
G1 X170.58 Y194.821 E.17619
G1 X171.792 Y194.821 E.04145
G1 X168.149 Y191.179 E.17619
G1 X169.361 Y191.179 E.04145
G1 X173.004 Y194.821 E.17619
G1 X174.216 Y194.821 E.04145
G1 X170.573 Y191.179 E.17619
G1 X171.785 Y191.179 E.04145
G1 X175.428 Y194.821 E.17619
G1 X176.64 Y194.821 E.04145
G1 X172.997 Y191.179 E.17619
G1 X174.209 Y191.179 E.04145
G1 X177.852 Y194.821 E.17619
G1 X179.064 Y194.821 E.04145
G1 X175.421 Y191.179 E.17619
G1 X176.633 Y191.179 E.04145
G1 X180.276 Y194.821 E.17619
G1 X181.488 Y194.821 E.04145
G1 X177.846 Y191.179 E.17619
G1 X179.058 Y191.179 E.04145
G1 X182.701 Y194.821 E.17619
G1 X183.913 Y194.821 E.04145
G1 X180.27 Y191.179 E.17619
G1 X181.482 Y191.179 E.04145
G1 X185.125 Y194.821 E.17619
G1 X186.337 Y194.821 E.04145
G1 X182.694 Y191.179 E.17619
G1 X183.906 Y191.179 E.04145
G1 X187.549 Y194.821 E.17619
G1 X187.821 Y194.821 E.00932
G1 X187.821 Y193.882 E.03213
G1 X185.118 Y191.179 E.13075
G1 X186.33 Y191.179 E.04145
G1 X187.821 Y192.67 E.07213
G1 X187.821 Y191.458 E.04145
G1 X187.542 Y191.179 E.0135
G1 X187.821 Y191.179 E.00955
G1 X187.821 Y191.279 E.00344
M204 S2500
G1 E-5 F2700
G1 Z.45 F9000
G1 X151.441 Y195.453 Z.45
G1 Z.25
G1 E5 F2400
M204 S500
;TYPE:Support
G1 F3600
G1 X151.051 Y195.633 E.01469
G1 X151.68 Y196.573 E.03868
G1 X149.971 Y197.715 E.07026
G1 X149.855 Y197.738 E.00404
G1 X149.709 Y197.836 E.00603
G1 X148.716 Y198.033 E.03463
G1 X147.722 Y197.836 E.03463
G1 X146.881 Y197.273 E.03463
G1 X146.318 Y196.431 E.03463
G1 X146.244 Y196.06 E.01296
G1 X148.058 Y195.223 E.06832
G1 X148.241 Y196.057 E.0292
G1 X149.572 Y196.057 E.04551
G1 X149.66 Y195.999 E.00361
G1 X149.869 Y195.686 E.01286
G1 X149.942 Y195.317 E.01286
G1 X149.919 Y195.2 E.00407
G1 X151.325 Y195.2 E.04808
G1 X151.42 Y195.406 E.00774
M204 S2500
G1 E-5 F2700
G1 Z.45 F9000
G1 X151.177 Y196.722 Z.45
G1 Z.25
G1 E5 F2400
M204 S500
G1 F3600
G1 X151.177 Y196.382 E.01161
G1 X150.792 Y195.806 E.02369
G1 X150.792 Y196.791 E.03369
G1 X150.407 Y197.048 E.01583
G1 X150.407 Y195.512 E.05255
G1 X150.221 Y195.512 E.00636
G1 X150.163 Y195.807 E.01031
G1 X150.023 Y196.017 E.00862
G1 X150.023 Y197.305 E.04406
G1 X149.85 Y197.421 E.00711
G1 X149.734 Y197.444 E.00404
G1 X149.638 Y197.508 E.00395
G1 X149.638 Y196.369 E.03896
G1 X149.253 Y196.369 E.01316
G1 X149.253 Y197.608 E.04239
G1 X148.868 Y197.685 E.01342
G1 X148.868 Y196.369 E.04501
G1 X148.483 Y196.369 E.01316
G1 X148.483 Y197.669 E.04447
G1 X148.098 Y197.593 E.01342
G1 X148.098 Y196.369 E.04185
G1 X147.991 Y196.369 E.00368
G1 X147.837 Y195.668 E.02452
G1 X147.714 Y195.725 E.00465
G1 X147.714 Y197.455 E.05914
G1 X147.329 Y197.198 E.01583
G1 X147.329 Y195.903 E.04428
G1 X146.944 Y196.08 E.01449
G1 X146.944 Y197.087 E.03444
M204 S2500
G1 E-5 F2700
G1 Z.45 F9000
G1 X150.774 Y194.004 Z.45
G1 Z.25
G1 E5 F2400
M204 S500
G1 F3600
G1 X149.556 Y194.566 E.04586
G1 X149.527 Y194.546 E.0012
G1 X150.741 Y193.986 E.04573
M204 S2500
G1 E-5 F2700
G1 Z.45 F9000
G1 X158.278 Y188.784 Z.45
G1 X158.267 Y188.765
G1 Z.25
G1 E5 F2400
M204 S500
;TYPE:Inner wall
;WIDTH:0.449999
G1 F1800
G1 X151.939 Y192.31 E.28387
G1 X145.352 Y195.346 E.28387
G1 X138.546 Y197.857 E.28387
G1 X131.565 Y199.826 E.28387
G1 X124.451 Y201.241 E.28387
G1 X117.248 Y202.093 E.28387
G1 X110 Y202.378 E.28387
G1 X102.752 Y202.093 E.28387
G1 X95.549 Y201.241 E.28387
G1 X88.435 Y199.826 E.28387
G1 X81.454 Y197.857 E.28387
G1 X74.648 Y195.346 E.28387
G1 X68.061 Y192.31 E.28387
G1 X61.733 Y188.765 E.28387
G1 X55.701 Y184.736 E.28387
G1 X50.005 Y180.245 E.28387
G1 X44.679 Y175.321 E.28387
G1 X39.755 Y169.995 E.28387
G1 X35.264 Y164.299 E.28387
G1 X31.235 Y158.267 E.28387
G1 X27.69 Y151.939 E.28387
G1 X24.654 Y145.352 E.28387
G1 X22.143 Y138.546 E.28387
G1 X20.174 Y131.565 E.28387
G1 X18.759 Y124.451 E.28387
G1 X17.907 Y117.248 E.28387
G1 X17.622 Y110 E.28387
G1 X17.907 Y102.752 E.28387
G1 X18.759 Y95.549 E.28387
G1 X20.174 Y88.435 E.28387
G1 X22.143 Y81.454 E.28387
G1 X24.654 Y74.648 E.28387
G1 X27.69 Y68.061 E.28387
G1 X31.235 Y61.733 E.28387
G1 X35.264 Y55.701 E.28387
G1 X39.755 Y50.005 E.28387
G1 X44.679 Y44.679 E.28387
G1 X50.005 Y39.755 E.28387
G1 X55.701 Y35.264 E.28387
G1 X61.733 Y31.235 E.28387
G1 X68.061 Y27.69 E.28387
G1 X74.648 Y24.654 E.28387
G1 X81.454 Y22.143 E.28387
G1 X88.435 Y20.174 E.28387
G1 X95.549 Y18.759 E.28387
G1 X102.752 Y17.907 E.28387
G1 X110 Y17.622 E.28387
G1 X117.248 Y17.907 E.28387
G1 X124.451 Y18.759 E.28387
G1 X131.565 Y20.174 E.28387
G1 X138.546 Y22.143 E.28387
G1 X145.352 Y24.654 E.28387
G1 X151.939 Y27.69 E.28387
G1 X158.267 Y31.235 E.28387
G1 X164.299 Y35.264 E.28387
G1 X169.995 Y39.755 E.28387
G1 X175.321 Y44.679 E.28387
G1 X180.245 Y50.005 E.28387
G1 X184.736 Y55.701 E.28387
G1 X188.765 Y61.733 E.28387
G1 X192.31 Y68.061 E.28387
G1 X195.346 Y74.648 E.28387
G1 X197.857 Y81.454 E.28387
G1 X199.826 Y88.435 E.28387
G1 X201.241 Y95.549 E.28387
G1 X202.093 Y102.752 E.28387
G1 X202.378 Y110 E.28387
G1 X202.093 Y117.248 E.28387
G1 X201.241 Y124.451 E.28387
G1 X199.826 Y131.565 E.28387
G1 X197.857 Y138.546 E.28387
G1 X195.346 Y145.352 E.28387
G1 X192.31 Y151.939 E.28387
G1 X188.765 Y158.267 E.28387
G1 X184.736 Y164.299 E.28387
G1 X180.245 Y169.995 E.28387
G1 X175.321 Y175.321 E.28387
G1 X169.995 Y180.245 E.28387
G1 X164.299 Y184.736 E.28387
G1 X158.301 Y188.743 E.28231
M204 S2500
G1 X158.313 Y188.761 F9000
G1 X158.279 Y188.783
G1 X158.475 Y189.104
M204 S500
;TYPE:Outer wall
G1 F1800
G1 X152.119 Y192.663 E.28509
G1 X145.503 Y195.713 E.28509
G1 X138.669 Y198.234 E.28509
G1 X131.658 Y200.211 E.28509
G1 X124.513 Y201.633 E.28509
G1 X117.279 Y202.489 E.28509
G1 X110 Y202.775 E.28509
G1 X102.721 Y202.489 E.28509
G1 X95.487 Y201.633 E.28509
G1 X88.342 Y200.211 E.28509
G1 X81.331 Y198.234 E.28509
G1 X74.497 Y195.713 E.28509
G1 X67.881 Y192.663 E.28509
G1 X61.525 Y189.104 E.28509
G1 X55.468 Y185.056 E.28509
G1 X49.748 Y180.547 E.28509
G1 X44.398 Y175.602 E.28509
G1 X39.453 Y170.252 E.28509
G1 X34.944 Y164.532 E.28509
G1 X30.896 Y158.475 E.28509
G1 X27.337 Y152.119 E.28509
G1 X24.287 Y145.503 E.28509
G1 X21.766 Y138.669 E.28509
G1 X19.789 Y131.658 E.28509
G1 X18.367 Y124.513 E.28509
G1 X17.511 Y117.279 E.28509
G1 X17.225 Y110 E.28509
G1 X17.511 Y102.721 E.28509
G1 X18.367 Y95.487 E.28509
G1 X19.789 Y88.342 E.28509
G1 X21.766 Y81.331 E.28509
G1 X24.287 Y74.497 E.28509
G1 X27.337 Y67.881 E.28509
G1 X30.896 Y61.525 E.28509
G1 X34.944 Y55.468 E.28509
G1 X39.453 Y49.748 E.28509
G1 X44.398 Y44.398 E.28509
G1 X49.748 Y39.453 E.28509
G1 X55.468 Y34.944 E.28509
G1 X61.525 Y30.896 E.28509
G1 X67.881 Y27.337 E.28509
G1 X74.497 Y24.287 E.28509
G1 X81.331 Y21.766 E.28509
G1 X88.342 Y19.789 E.28509
G1 X95.487 Y18.367 E.28509
G1 X102.721 Y17.511 E.28509
G1 X110 Y17.225 E.28509
G1 X117.279 Y17.511 E.28509
G1 X124.513 Y18.367 E.28509
G1 X131.658 Y19.789 E.28509
G1 X138.669 Y21.766 E.28509
G1 X145.503 Y24.287 E.28509
G1 X152.119 Y27.337 E.28509
G1 X158.475 Y30.896 E.28509
G1 X164.532 Y34.944 E.28509
G1 X170.252 Y39.453 E.28509
G1 X175.602 Y44.398 E.28509
G1 X180.547 Y49.748 E.28509
G1 X185.056 Y55.468 E.28509
G1 X189.104 Y61.525 E.28509
G1 X192.663 Y67.881 E.28509
G1 X195.713 Y74.497 E.28509
G1 X198.234 Y81.331 E.28509
G1 X200.211 Y88.342 E.28509
G1 X201.633 Y95.487 E.28509
G1 X202.489 Y102.721 E.28509
G1 X202.775 Y110 E.28509
G1 X202.489 Y117.279 E.28509
G1 X201.633 Y124.513 E.28509
G1 X200.211 Y131.658 E.28509
G1 X198.234 Y138.669 E.28509
G1 X195.713 Y145.503 E.28509
G1 X192.663 Y152.119 E.28509
G1 X189.104 Y158.475 E.28509
G1 X185.056 Y164.532 E.28509
G1 X180.547 Y170.252 E.28509
G1 X175.602 Y175.602 E.28509
G1 X170.252 Y180.547 E.28509
G1 X164.532 Y185.056 E.28509
G1 X158.508 Y189.081 E.28352
M204 S2500
G1 E-5 F2700
G1 Z.45 F9000
G1 X158.3 Y188.769 Z.45
G1 X120.718 Y105.561
G1 X120.336 Y104.733
G1 X119.891 Y103.939
G1 X119.385 Y103.181
G1 X118.821 Y102.466
G1 X118.203 Y101.797
G1 X117.533 Y101.178
G1 X116.796 Y100.6
G1 X116.061 Y100.109
G1 X115.267 Y99.664
G1 X114.439 Y99.282
G1 X113.585 Y98.967
G1 X112.708 Y98.72
G1 X111.815 Y98.542
G1 X110.909 Y98.435
G1 X109.972 Y98.401
G1 X109.09 Y98.435
G1 X108.185 Y98.542
G1 X107.292 Y98.72
G1 X106.415 Y98.967
G1 X106.41 Y98.969
G1 X106.403 Y98.951
G1 Z.25
G1 E5 F2400
M204 S500
;TYPE:Inner wall
G1 F1800
G1 X105.574 Y99.255 E.03455
G1 X104.745 Y99.635 E.03571
G1 X103.948 Y100.079 E.03571
G1 X103.188 Y100.585 E.03571
G1 X102.435 Y101.179 E.03754
G1 X101.799 Y101.766 E.03389
G1 X101.179 Y102.435 E.03571
G1 X100.612 Y103.151 E.03571
G1 X100.104 Y103.908 E.03571
G1 X99.656 Y104.703 E.03571
G1 X99.273 Y105.531 E.03571
G1 X98.955 Y106.387 E.03571
G1 X98.706 Y107.264 E.03571
G1 X98.526 Y108.159 E.03571
G1 X98.417 Y109.065 E.03571
G1 X98.379 Y109.977 E.03571
G1 X98.413 Y110.888 E.03571
G1 X98.518 Y111.795 E.03571
G1 X98.695 Y112.69 E.03571
G1 X98.941 Y113.569 E.03571
G1 X99.255 Y114.426 E.03571
G1 X99.635 Y115.255 E.03571
G1 X100.079 Y116.052 E.03571
G1 X100.585 Y116.812 E.03571
G1 X101.148 Y117.529 E.03571
G1 X101.766 Y118.201 E.03571
G1 X102.435 Y118.821 E.03571
G1 X103.151 Y119.388 E.03571
G1 X103.908 Y119.896 E.03571
G1 X104.703 Y120.344 E.03571
G1 X105.531 Y120.727 E.03571
G1 X106.387 Y121.045 E.03571
G1 X107.264 Y121.294 E.03571
G1 X108.159 Y121.474 E.03571
G1 X109.065 Y121.583 E.03571
G1 X109.977 Y121.621 E.03571
G1 X110.889 Y121.587 E.03571
G1 X111.823 Y121.476 E.03682
G1 X112.69 Y121.305 E.0346
G1 X113.569 Y121.059 E.03571
G1 X114.426 Y120.745 E.03571
G1 X115.255 Y120.365 E.03571
G1 X116.052 Y119.921 E.03571
G1 X116.812 Y119.415 E.03571
G1 X117.529 Y118.852 E.03571
G1 X118.201 Y118.234 E.03571
G1 X118.821 Y117.565 E.03571
G1 X119.388 Y116.849 E.03571
G1 X119.896 Y116.092 E.03571
G1 X120.344 Y115.297 E.03571
G1 X120.727 Y114.469 E.03571
G1 X121.045 Y113.613 E.03571
G1 X121.294 Y112.736 E.03571
G1 X121.469 Y111.867 E.03465
G1 X121.583 Y110.936 E.03671
G1 X121.621 Y110.023 E.03577
G1 X121.587 Y109.112 E.03571
G1 X121.482 Y108.205 E.03571
G1 X121.305 Y107.31 E.03571
G1 X121.059 Y106.431 E.03571
G1 X120.745 Y105.574 E.03571
G1 X120.365 Y104.745 E.03571
G1 X119.921 Y103.948 E.03571
G1 X119.415 Y103.188 E.03571
G1 X118.852 Y102.471 E.03571
G1 X118.234 Y101.799 E.03571
G1 X117.565 Y101.179 E.03571
G1 X116.826 Y100.596 E.03682
G1 X116.092 Y100.104 E.0346
G1 X115.297 Y99.656 E.03571
G1 X114.469 Y99.273 E.03571
G1 X113.613 Y98.955 E.03571
G1 X112.736 Y98.706 E.03571
G1 X111.841 Y98.526 E.03571
G1 X110.935 Y98.417 E.03571
G1 X109.995 Y98.38 E.03682
G1 X109.112 Y98.413 E.0346
G1 X108.205 Y98.518 E.03571
G1 X107.31 Y98.695 E.03571
G1 X106.441 Y98.938 E.0353
M204 S2500
G1 X106.447 Y98.958 F9000
G1 X106.437 Y98.961
G1 X106.539 Y99.322
M204 S500
;TYPE:Outer wall
G1 F1800
G1 X105.712 Y99.627 E.03449
G1 X104.911 Y99.995 E.03449
G1 X104.142 Y100.425 E.03449
G1 X103.408 Y100.914 E.03449
G1 X102.704 Y101.47 E.0351
G1 X102.068 Y102.057 E.03389
G1 X101.47 Y102.704 E.03449
G1 X100.923 Y103.396 E.03449
G1 X100.433 Y104.128 E.03449
G1 X100.002 Y104.897 E.03449
G1 X99.633 Y105.697 E.03449
G1 X99.327 Y106.524 E.03449
G1 X99.087 Y107.372 E.03449
G1 X98.915 Y108.236 E.03449
G1 X98.81 Y109.112 E.03449
G1 X98.775 Y109.992 E.03449
G1 X98.809 Y110.873 E.03449
G1 X98.912 Y111.748 E.03449
G1 X99.083 Y112.613 E.03449
G1 X99.322 Y113.461 E.03449
G1 X99.627 Y114.288 E.03449
G1 X99.995 Y115.089 E.03449
G1 X100.425 Y115.858 E.03449
G1 X100.914 Y116.592 E.03449
G1 X101.459 Y117.284 E.03449
G1 X102.057 Y117.932 E.03449
G1 X102.704 Y118.53 E.03449
G1 X103.396 Y119.077 E.03449
G1 X104.128 Y119.567 E.03449
G1 X104.897 Y119.998 E.03449
G1 X105.697 Y120.367 E.03449
G1 X106.524 Y120.673 E.03449
G1 X107.372 Y120.913 E.03449
G1 X108.236 Y121.085 E.03449
G1 X109.112 Y121.19 E.03449
G1 X109.992 Y121.225 E.03449
G1 X110.873 Y121.191 E.03449
G1 X111.775 Y121.083 E.03556
G1 X112.613 Y120.917 E.03342
G1 X113.461 Y120.678 E.03449
G1 X114.288 Y120.373 E.03449
G1 X115.089 Y120.005 E.03449
G1 X115.858 Y119.575 E.03449
G1 X116.592 Y119.086 E.03449
G1 X117.284 Y118.541 E.03449
G1 X117.932 Y117.943 E.03449
G1 X118.53 Y117.296 E.03449
G1 X119.077 Y116.604 E.03449
G1 X119.567 Y115.872 E.03449
G1 X119.998 Y115.103 E.03449
G1 X120.367 Y114.303 E.03449
G1 X120.673 Y113.476 E.03449
G1 X120.913 Y112.628 E.03449
G1 X121.08 Y111.79 E.03344
G1 X121.19 Y110.889 E.03553
G1 X121.225 Y110.008 E.03451
G1 X121.191 Y109.127 E.03449
G1 X121.088 Y108.252 E.03449
G1 X120.917 Y107.387 E.03449
G1 X120.678 Y106.539 E.03449
G1 X120.373 Y105.712 E.03449
G1 X120.005 Y104.911 E.03449
G1 X119.575 Y104.142 E.03449
G1 X119.086 Y103.408 E.03449
G1 X118.541 Y102.716 E.03449
G1 X117.943 Y102.068 E.03449
G1 X117.296 Y101.47 E.03449
G1 X116.581 Y100.908 E.03557
G1 X115.872 Y100.433 E.03342
G1 X115.103 Y100.002 E.03449
G1 X114.303 Y99.633 E.03449
G1 X113.476 Y99.327 E.03449
G1 X112.628 Y99.087 E.03449
G1 X111.764 Y98.915 E.03449
G1 X110.888 Y98.81 E.03449
G1 X109.98 Y98.776 E.03556
G1 X109.127 Y98.809 E.03342
G1 X108.252 Y98.912 E.03449
G1 X107.387 Y99.083 E.03449
G1 X106.577 Y99.311 E.03293
M204 S2500
G1 E-5 F2700
G1 Z.45 F9000
G1 X106.475 Y98.95 Z.45
G1 X106.415 Y98.967
G1 X105.561 Y99.282
G1 X104.733 Y99.664
G1 X103.939 Y100.109
G1 X103.181 Y100.615
G1 X102.466 Y101.179
G1 X101.797 Y101.797
G1 X101.179 Y102.466
G1 X100.615 Y103.181
G1 X100.109 Y103.939
G1 X99.664 Y104.733
G1 X99.282 Y105.561
